icon/fa/hippo.svg

<svg xmlns="http://www.w3.org/2000/svg" viewBox="0 0 640 512"><!--! Font Awesome Free 6.1.2 by @fontawesome - https://fontawesome.com License - https://fontawesome.com/license/free (Icons: CC BY 4.0, Fonts: SIL OFL 1.1, Code: MIT License) Copyright 2022 Fonticons, Inc.--><path d="M407 47.03c9.4-9.37 24.6-9.37 33.1 0l18.1 17.18c1.9-.14 3.8-.21 4.9-.21h32c12.1 0 22.8 2.31 32.5 6.48L543 55.03c9.4-9.37 24.6-9.37 33.1 0 10.2 9.37 10.2 24.57 0 33.94L564 101.9c7.6 12.2 11.1 26.7 11.1 42.1 0 10.2 8.3 18.8 17.6 22.1 27.9 13.4 46.4 41.4 46.4 73.9 0 26.2-11.7 49.4-32 64v32c0 8.8-6.3 16-16 16h-32c-7.9 0-16-7.2-16-16v-16h-64v16c0 8.8-6.3 16-16 16h-32c-7.9 0-16-7.2-16-16v-17.6c-10.9-2.4-21.8-8.3-32-14.4-.6-1.1-2-2.3-3.4-3.5-17-14.6-28.6-36.3-28.6-60.5 0-8.8-6.3-16-16-16-7.9 0-16 7.2-16 16 0 44.7 27.1 83.2 64 101.2V352c0 17.7 15.2 32 32 32h32v64c0 17.7-13.4 32-32 32h-64c-16.8 0-32-14.3-32-32v-76c-18.9 7.7-40.5 12-64 12-21.7 0-43.3-4.3-64-12v76c0 17.7-13.4 32-32 32h-64c-16.77 0-32-14.3-32-32V329.1l-17.17 40.6c-5.38 12.2-19.57 17.6-31.68 12.2-12.112-5.4-17.567-19.5-12.183-31.6L23.1 300.9c6.17-11.9 8-24.7 8-37.7 0-107.5 86.1-195.18 192.7-199.07l-.7-.13H288c41.7 0 83.4 12.07 117.2 25.73 1.7-1.83 3.5-3.58 5.3-5.25l-3.5-3.51c-9.3-9.37-9.3-24.57 0-33.94zM455.1 208c-12.4 0-24 10.7-24 24s11.6 24 24 24c14.2 0 24-10.7 24-24s-9.8-24-24-24zm112 48c14.2 0 24-10.7 24-24s-9.8-24-24-24c-12.4 0-24 10.7-24 24s11.6 24 24 24zm-104-128c-7.9 0-16 7.2-16 16s8.1 16 16 16c9.7 0 16-7.2 16-16s-6.3-16-16-16zm64 32c9.7 0 16-7.2 16-16s-6.3-16-16-16c-7.9 0-16 7.2-16 16s8.1 16 16 16z"/></svg>

<svg xmlns="http://www.w3.org/2000/svg" viewBox="0 0 640 512" height="1em" width="1em">
<!--! Font Awesome Free 6.1.2 by @fontawesome - https://fontawesome.com License - https://fontawesome.com/license/free (Icons: CC BY 4.0, Fonts: SIL OFL 1.1, Code: MIT License) Copyright 2022 Fonticons, Inc.-->
  <path d="M407 47.03C416.4 37.66 431.6 37.66 440.1 47.03L458.2 64.21C460.1 64.07 462 64 463.1 64H495.1C507.2 64 517.9 66.31 527.6 70.48L543 55.03C552.4 45.66 567.6 45.66 576.1 55.03C586.3 64.4 586.3 79.6 576.1 88.97L564 101.9C571.6 114.1 575.1 128.6 575.1 144C575.1 154.2 583.4 162.8 592.7 166.1C620.6 179.5 639.1 207.5 639.1 240C639.1 266.2 627.4 289.4 607.1 304V336C607.1 344.8 600.8 352 591.1 352H559.1C551.2 352 543.1 344.8 543.1 336V320H479.1V336C479.1 344.8 472.8 352 463.1 352H431.1C423.2 352 415.1 344.8 415.1 336V318.4C404.2 316 393.3 310.1 383.1 304C382.5 302.9 381.1 301.7 379.7 300.5C362.7 285.9 351.1 264.2 351.1 240C351.1 231.2 344.8 224 335.1 224C327.2 224 319.1 231.2 319.1 240C319.1 284.7 346.2 323.2 383.1 341.2V352C383.1 369.7 398.3 384 415.1 384H447.1V448C447.1 465.7 433.7 480 415.1 480H351.1C334.3 480 319.1 465.7 319.1 448V372C300.2 379.7 278.6 384 255.1 384C233.4 384 211.8 379.7 191.1 372V448C191.1 465.7 177.7 480 159.1 480H95.1C78.33 480 63.1 465.7 63.1 448V329.1L45.93 369.7C40.55 381.9 26.36 387.3 14.25 381.9C2.138 376.5-3.317 362.4 2.067 350.3L23.1 300.9C29.27 289 31.1 276.2 31.1 263.2C31.1 155.7 117.2 68.02 223.8 64.13L223.1 64H288C329.7 64 371.4 76.07 405.2 89.73C406.9 87.9 408.7 86.15 410.5 84.48L407 80.97C397.7 71.6 397.7 56.4 407 47.03H407zM455.1 208C442.7 208 431.1 218.7 431.1 232C431.1 245.3 442.7 256 455.1 256C469.3 256 479.1 245.3 479.1 232C479.1 218.7 469.3 208 455.1 208zM567.1 256C581.3 256 591.1 245.3 591.1 232C591.1 218.7 581.3 208 567.1 208C554.7 208 543.1 218.7 543.1 232C543.1 245.3 554.7 256 567.1 256zM463.1 128C455.2 128 447.1 135.2 447.1 144C447.1 152.8 455.2 160 463.1 160C472.8 160 479.1 152.8 479.1 144C479.1 135.2 472.8 128 463.1 128zM527.1 160C536.8 160 543.1 152.8 543.1 144C543.1 135.2 536.8 128 527.1 128C519.2 128 511.1 135.2 511.1 144C511.1 152.8 519.2 160 527.1 160z"/>
</svg>
